americans/img/partner3.svg

<svg width="107" height="34" viewBox="0 0 107 34" fill="none" xmlns="http://www.w3.org/2000/svg">
<path fill-rule="evenodd" clip-rule="evenodd" d="M34.0328 0.931311C32.315 1.13589 31.1748 1.81516 30.5785 2.98922C30.3723 3.39535 30.2928 3.73945 30.2708 4.32186C30.2117 5.88144 30.8232 6.92612 32.2536 7.70927C32.6046 7.90147 32.9898 8.05449 34.3261 8.53271C36.1687 9.1921 36.6385 9.4619 36.915 10.0195C37.037 10.2655 37.0437 10.3015 37.0437 10.7077C37.0437 11.1138 37.037 11.15 36.9152 11.3955C36.4963 12.2403 35.2006 12.6 33.5245 12.3369C32.5026 12.1765 31.2918 11.6539 30.5429 11.05L30.3767 10.916V12.0831V13.2502L30.5624 13.3679C31.9929 14.2735 34.4133 14.6245 36.1839 14.183C37.1026 13.9539 37.6792 13.6482 38.2364 13.095C38.7177 12.6172 38.9406 12.239 39.1188 11.5982C39.2049 11.2882 39.237 10.3974 39.177 9.98271C39.0019 8.77413 38.32 7.89087 37.0767 7.26218C36.8367 7.14087 36.0163 6.81719 35.1863 6.51646C34.3798 6.22418 33.5792 5.91685 33.4072 5.83346C32.7756 5.52745 32.4657 5.12326 32.422 4.54876C32.3572 3.69834 32.8773 3.13313 33.9231 2.91768C34.2486 2.8506 34.398 2.8419 34.9126 2.85987C35.829 2.89186 36.4494 3.04675 37.2607 3.44605C37.66 3.64256 37.9769 3.83502 38.3634 4.11589L38.5492 4.25082V3.10576V1.96065L38.2461 1.78771C37.4583 1.3381 36.5206 1.05056 35.4992 0.945324C35.1479 0.909144 34.288 0.900954 34.0328 0.931311ZM87.0563 0.967181C86.2598 1.08927 85.4142 1.42917 84.8666 1.84742C84.1604 2.38674 83.7238 3.18192 83.6397 4.08188C83.5696 4.83323 83.6855 5.51852 83.9867 6.13284C84.1413 6.44829 84.2423 6.59243 84.4929 6.85516C85.0982 7.49005 85.6822 7.80465 87.3887 8.41501C88.882 8.94917 88.9039 8.95775 89.3593 9.18679C90.1827 9.60099 90.538 10.2055 90.4063 10.968C90.2922 11.6289 89.8592 12.0417 89.0278 12.2823C88.5756 12.4132 87.4974 12.4332 86.845 12.3228C85.8331 12.1516 84.6437 11.6348 83.9215 11.0526C83.8319 10.9803 83.7483 10.9212 83.7358 10.9212C83.7233 10.9212 83.713 11.4417 83.713 12.0778V13.2344L84.0552 13.4305C84.6854 13.7919 85.3581 14.0344 86.1899 14.2002C88.5727 14.6749 90.8068 14.1353 91.8516 12.8326C92.2999 12.2737 92.5372 11.6297 92.5773 10.863C92.6396 9.67378 92.278 8.68613 91.5239 7.98582C90.9399 7.44347 90.3601 7.15718 88.464 6.4748C87.7113 6.20392 86.9534 5.91413 86.7799 5.83078C86.3738 5.63579 86.058 5.3573 85.9149 5.06813C85.8147 4.86545 85.805 4.80843 85.805 4.41891C85.805 4.02551 85.8137 3.97551 85.9153 3.78398C86.1275 3.38394 86.5223 3.10265 87.0954 2.94318C87.4473 2.84524 88.4444 2.82121 88.9368 2.89881C89.883 3.04784 90.7886 3.43083 91.6294 4.03751C91.7574 4.12986 91.8764 4.2054 91.8939 4.2054C91.9115 4.2054 91.9211 3.69655 91.9154 3.07462L91.9051 1.94388L91.5787 1.7586C90.9036 1.37545 89.9764 1.08018 89.0836 0.963997C88.5346 0.89253 87.533 0.894122 87.0563 0.967181ZM100.586 0.949866C99.4521 1.09206 98.3164 1.65274 97.7705 2.33977C97.2616 2.98041 97.0471 3.61457 97.0471 4.4792C97.0471 5.53754 97.3807 6.3748 98.0533 7.00458C98.6387 7.55267 99.245 7.85776 100.977 8.47553C102.792 9.12281 103.364 9.42817 103.64 9.89645C103.932 10.3904 103.913 11.1028 103.597 11.5622C103.36 11.9073 102.965 12.1485 102.385 12.3038C102.156 12.365 101.974 12.3768 101.27 12.3757C100.345 12.3744 100.043 12.3297 99.3049 12.0849C98.6504 11.8679 97.8246 11.4313 97.3152 11.0327C97.2368 10.9714 97.162 10.9212 97.149 10.9212C97.136 10.9212 97.1253 11.4357 97.1253 12.0645V13.2078L97.2915 13.3211C98.0647 13.8481 99.3833 14.2449 100.694 14.3448C102.812 14.5063 104.605 13.8502 105.437 12.6082C105.833 12.0166 106 11.4361 106.001 10.6449C106.003 9.28484 105.488 8.28477 104.424 7.57806C103.908 7.23555 103.517 7.06541 101.899 6.47942C99.8973 5.75443 99.6067 5.59383 99.3459 5.06802C99.2278 4.83009 99.2173 4.77873 99.2173 4.43921C99.2173 3.96701 99.2942 3.75801 99.5762 3.46418C99.8313 3.1983 100.242 2.99675 100.721 2.90192C100.987 2.84924 101.18 2.84093 101.718 2.85914C102.085 2.8716 102.499 2.90766 102.639 2.93934C103.415 3.11519 104.147 3.43472 104.862 3.91014C105.107 4.07252 105.314 4.2054 105.322 4.2054C105.331 4.2054 105.333 3.69617 105.328 3.07373L105.317 1.9421L104.985 1.75316C104.325 1.37723 103.387 1.07991 102.496 0.963997C102.013 0.901109 101.033 0.89385 100.586 0.949866ZM53.5256 7.55523V14.1821H54.5814H55.6371V9.9475C55.6371 7.55601 55.652 5.71852 55.6712 5.72585C55.6989 5.73634 62.1779 11.9712 64.1518 13.8868L64.6699 14.3896V7.74471V1.09983H63.5946H62.5193V5.25354C62.5193 7.53807 62.51 9.40724 62.4987 9.40724C62.4826 9.40724 59.2709 6.37263 53.6918 1.08585L53.5256 0.9284V7.55523ZM0.384766 7.64036V14.1882L3.2686 14.1721C5.75809 14.1581 6.20324 14.1469 6.52392 14.0901C7.46798 13.9229 8.06817 13.6726 8.66766 13.1959C9.76684 12.3219 10.1725 10.4539 9.55451 9.11136C9.2239 8.39304 8.65827 7.82557 7.98461 7.53621C7.87019 7.48707 7.77623 7.43788 7.77588 7.4269C7.77553 7.41591 7.85979 7.36707 7.96314 7.31836C8.58015 7.02756 9.08801 6.371 9.3068 5.58125C9.42946 5.13847 9.42934 4.13634 9.3066 3.68134C8.93798 2.31519 7.86656 1.47712 6.12593 1.19346C5.78351 1.13768 5.31779 1.12502 3.05354 1.11015L0.384766 1.09261V7.64036ZM14.6182 5.30916C14.6182 9.80573 14.625 9.99214 14.8163 10.7367C15.3247 12.7158 16.6245 13.9035 18.7045 14.2894C19.1974 14.3809 20.5577 14.3809 21.0506 14.2894C22.2315 14.0703 23.1062 13.6211 23.8074 12.8738C24.4563 12.1821 24.8645 11.2809 25.0475 10.1357C25.1115 9.73508 25.1173 9.33865 25.1173 5.40881V1.11924L24.0144 1.10895L22.9116 1.09862L22.8964 5.3403C22.8829 9.08706 22.8737 9.61811 22.8168 9.89195C22.5806 11.0297 22.1063 11.7325 21.3244 12.1034C20.8576 12.3248 20.5862 12.3751 19.858 12.3756C19.3014 12.3759 19.1701 12.3638 18.9017 12.287C18.2716 12.1069 17.785 11.7669 17.4596 11.2792C17.2014 10.8923 17.0975 10.6247 16.9171 9.88127C16.8861 9.75359 16.8659 8.4036 16.8501 5.40881L16.8275 1.11924L15.7229 1.10891L14.6182 1.09862V5.30916ZM44.9621 7.64095V14.1821H46.0569H47.1518V7.64095V1.09983H46.0569H44.9621V7.64095ZM70.6136 7.64095V14.1821H74.5825H78.5514V13.1924V12.2028L75.6676 12.1928L72.7838 12.1829V10.1642V8.1456L75.3743 8.13563L77.9649 8.12565V7.17511V6.22457L75.3743 6.21459L72.7838 6.20462L72.7736 4.64213L72.7633 3.07963H75.6574H78.5514V2.08973V1.09983H74.5825H70.6136V7.64095ZM5.95693 3.13247C6.3331 3.24035 6.58543 3.37156 6.8003 3.57109C7.16051 3.9056 7.29104 4.29337 7.25761 4.92962C7.23188 5.41902 7.13263 5.68537 6.86947 5.9712C6.63493 6.22601 6.25247 6.42713 5.82007 6.52313C5.57497 6.57756 5.28275 6.58862 4.04089 6.59053L2.55498 6.59281L2.54481 4.8141L2.53464 3.03538L4.12848 3.05028C5.4936 3.06306 5.75598 3.07486 5.95693 3.13247ZM6.34796 8.56272C7.21307 8.85096 7.6579 9.4541 7.6579 10.3389C7.6579 10.8597 7.51264 11.253 7.19481 11.5928C6.95573 11.8483 6.72976 11.9878 6.34796 12.1155L6.03513 12.2201L4.28528 12.2328L2.53542 12.2455V10.3386V8.4317L4.28528 8.44514L6.03513 8.45853L6.34796 8.56272ZM37.7906 20.8038C36.2955 21.0346 35.2078 21.7299 34.698 22.7806C34.4416 23.3092 34.387 23.5693 34.388 24.2558C34.3889 24.8852 34.4427 25.2147 34.6126 25.6322C34.9347 26.424 35.6225 27.0854 36.6096 27.5525C36.8079 27.6465 37.3915 27.874 37.9064 28.0582C39.4779 28.6206 39.6888 28.7025 40.0881 28.9049C40.5518 29.1399 40.8506 29.4115 41.0037 29.7368C41.0978 29.9368 41.1098 30.0083 41.1101 30.3699C41.1104 30.7373 41.0994 30.8013 40.998 31.019C40.6435 31.7811 39.5573 32.1684 38.1274 32.0427C36.8231 31.9281 35.7592 31.5121 34.5565 30.6466C34.4844 30.5947 34.4825 30.622 34.4825 31.7355V32.8777L34.7887 33.0615C35.3896 33.4221 36.322 33.7356 37.2553 33.8909C37.8557 33.9908 39.3145 33.9892 39.8591 33.8881C41.6344 33.5586 42.7915 32.6339 43.1685 31.2433C43.2823 30.8236 43.2923 29.9241 43.1885 29.4382C42.9472 28.3078 42.2274 27.4856 40.9637 26.8967C40.7648 26.804 40.0038 26.5152 39.2726 26.2549C37.2839 25.547 36.8954 25.3358 36.6459 24.8265C36.5488 24.6282 36.5373 24.5628 36.5364 24.1976C36.5355 23.8244 36.5447 23.7724 36.6457 23.582C36.8807 23.1389 37.3262 22.8524 37.9943 22.7148C38.3165 22.6485 38.4669 22.64 38.9989 22.658C39.351 22.67 39.7524 22.7072 39.917 22.7431C40.6909 22.912 41.4282 23.2302 42.1271 23.6968C42.3637 23.8548 42.5704 23.9899 42.5866 23.997C42.6027 24.0041 42.6159 23.5118 42.6159 22.903V21.796L42.505 21.7176C42.3406 21.6014 41.7362 21.3062 41.4232 21.1892C41.0033 21.0322 40.316 20.8662 39.8171 20.8013C39.2655 20.7295 38.264 20.7308 37.7906 20.8038ZM17.7073 27.2837V33.786H18.7825H19.8577L19.8676 29.6303L19.8776 25.4744L24.3353 29.7352L28.793 33.996L28.8031 27.5149C28.8086 23.9503 28.8046 21.0116 28.7943 20.9846C28.7796 20.9462 28.5449 20.9377 27.7284 20.9458L26.6815 20.9561L26.6619 25.0372L26.6424 29.1183L22.2042 24.9499C19.7632 22.6573 17.7528 20.7815 17.7367 20.7815C17.7205 20.7814 17.7073 23.7075 17.7073 27.2837ZM9.18292 27.3607V33.786H10.2975H11.412L11.4021 27.3711L11.3922 20.9561L10.2876 20.9458L9.18292 20.9355V27.3607ZM48.9897 27.3607V33.786H50.1042H51.2188L51.2089 27.3711L51.199 20.9561L50.0943 20.9458L48.9897 20.9355V27.3607ZM57.6705 27.3614V33.786H60.4448C63.4523 33.786 63.7221 33.7716 64.5327 33.5677C66.8966 32.9729 68.4464 31.2357 68.8748 28.7006C68.9617 28.1864 68.9928 27.0694 68.9354 26.5238C68.842 25.6372 68.6452 24.9137 68.3035 24.2009C67.385 22.2852 65.6182 21.1553 63.2622 20.9769C62.9719 20.9549 61.5949 20.9369 60.2024 20.9368L57.6705 20.9367V27.3614ZM73.6506 20.9626C73.6362 20.9768 73.6245 23.8679 73.6245 27.3872V33.786H77.5739H81.5233V32.8155V31.845H78.6687H75.8142V29.8458V27.8466H78.3755H80.9367V26.9149V25.9833H78.3755H75.8142V24.4305V22.8777H78.6687H81.5233V21.9072V20.9367H77.6C75.4421 20.9367 73.6649 20.9483 73.6506 20.9626ZM88.1317 27.3584V33.786H89.2265H90.3214V31.1851V28.5842L91.1132 28.5857L91.9051 28.5871L94.1144 31.1309C95.3295 32.53 96.3518 33.7 96.386 33.7309C96.4382 33.778 96.6498 33.7855 97.686 33.7769L98.9236 33.7666L96.6029 31.1463C95.3264 29.7051 94.2868 28.5202 94.2926 28.5131C94.2984 28.5061 94.451 28.4683 94.6316 28.4291C96.3875 28.0481 97.2827 26.8287 97.2815 24.8197C97.2803 22.9658 96.3396 21.6792 94.6239 21.1849C93.8725 20.9685 93.8006 20.9639 90.8591 20.9467L88.1317 20.9307V27.3584ZM93.7491 22.9671C94.2843 23.1446 94.686 23.4708 94.9083 23.9081C95.0869 24.2595 95.1443 24.9135 95.0336 25.3352C94.8953 25.8624 94.5583 26.2692 94.0667 26.5025C93.5751 26.7357 93.3592 26.7597 91.7503 26.7597H90.3214V24.7965V22.8333L91.8758 22.8473L93.4301 22.8613L93.7491 22.9671ZM63.6337 22.9704C64.5207 23.1782 65.0805 23.4777 65.6108 24.0282C66.0402 24.4741 66.29 24.9037 66.4993 25.5562C66.6721 26.0954 66.7487 26.6417 66.7496 27.3419C66.7509 28.3074 66.6104 29.0343 66.2942 29.6974C66.0809 30.1448 65.9346 30.3583 65.6108 30.6945C65.1711 31.151 64.7099 31.4333 64.0835 31.6293C63.4823 31.8175 63.1503 31.8446 61.4342 31.8448L59.8603 31.845V27.3583V22.8714L61.6101 22.8888C63.0558 22.9032 63.4076 22.9174 63.6337 22.9704Z" fill="white"/>
</svg>

<svg width="107" height="34" fill="none" xmlns="http://www.w3.org/2000/svg"><path fill-rule="evenodd" clip-rule="evenodd" d="M34.033.931c-1.718.205-2.858.884-3.455 2.058-.206.406-.285.75-.307 1.333-.06 1.56.552 2.604 1.983 3.387.35.192.736.345 2.072.824 1.843.66 2.313.929 2.589 1.487.122.245.129.282.129.688 0 .406-.007.442-.129.688-.419.844-1.714 1.204-3.39.94-1.022-.16-2.233-.682-2.982-1.286l-.166-.134v2.334l.185.118c1.43.905 3.851 1.256 5.622.815.919-.23 1.495-.535 2.052-1.088.482-.478.705-.856.883-1.497.086-.31.118-1.2.058-1.615-.175-1.209-.857-2.092-2.1-2.72-.24-.122-1.06-.446-1.89-.747-.807-.292-1.608-.6-1.78-.683-.631-.306-.941-.71-.985-1.284-.065-.85.455-1.416 1.501-1.631.326-.067.475-.076.99-.058.916.032 1.536.187 2.348.586.399.197.716.389 1.102.67l.186.135V1.96l-.303-.173c-.788-.45-1.725-.737-2.747-.843-.351-.036-1.211-.044-1.466-.014Zm53.023.036c-.796.122-1.642.462-2.19.88a3.148 3.148 0 0 0-1.226 2.235c-.07.751.046 1.437.347 2.05.154.316.255.46.506.723.605.635 1.19.95 2.896 1.56 1.493.534 1.515.543 1.97.772.824.414 1.179 1.019 1.047 1.781-.114.66-.547 1.074-1.378 1.314-.452.131-1.53.151-2.183.04-1.012-.17-2.201-.687-2.924-1.27a1.052 1.052 0 0 0-.185-.13c-.013 0-.023.52-.023 1.156v1.156l.342.197c.63.36 1.303.603 2.135.77 2.383.474 4.617-.066 5.662-1.368.448-.56.685-1.203.725-1.97.063-1.19-.299-2.177-1.053-2.877-.584-.543-1.164-.829-3.06-1.511-.753-.271-1.51-.56-1.684-.644-.406-.195-.722-.474-.865-.763-.1-.203-.11-.26-.11-.65 0-.392.009-.442.11-.634.212-.4.607-.681 1.18-.84.352-.099 1.35-.123 1.842-.045.946.149 1.852.532 2.692 1.139.128.092.247.167.265.167.017 0 .027-.508.021-1.13l-.01-1.131-.326-.185c-.675-.384-1.603-.679-2.495-.795-.55-.071-1.551-.07-2.028.003Zm13.53-.017c-1.134.142-2.27.703-2.816 1.39-.508.64-.723 1.275-.723 2.14 0 1.058.334 1.895 1.006 2.525.586.548 1.192.853 2.924 1.47 1.815.648 2.387.953 2.663 1.421.292.494.273 1.207-.043 1.666-.237.345-.632.587-1.212.742-.229.061-.411.073-1.115.072-.925-.002-1.227-.046-1.965-.291-.655-.217-1.48-.654-1.99-1.052a.825.825 0 0 0-.166-.112c-.013 0-.024.515-.024 1.144v1.143l.166.113c.774.527 2.092.924 3.403 1.024 2.118.161 3.911-.495 4.743-1.737.396-.591.563-1.172.564-1.963.002-1.36-.513-2.36-1.577-3.067-.516-.342-.907-.513-2.525-1.099-2.002-.725-2.292-.885-2.553-1.411-.118-.238-.129-.29-.129-.629 0-.472.077-.681.36-.975.254-.266.665-.467 1.144-.562.266-.053.459-.061.997-.043.367.013.781.049.921.08a6.615 6.615 0 0 1 2.223.971c.245.163.452.295.46.295.009 0 .011-.509.006-1.131l-.011-1.132-.332-.189c-.66-.376-1.598-.673-2.489-.789-.483-.063-1.463-.07-1.91-.014Zm-47.06 6.605v6.627H55.637V9.947c0-2.391.015-4.228.034-4.221.028.01 6.507 6.245 8.48 8.16l.519.504V1.1h-2.151v4.154c0 2.284-.009 4.153-.02 4.153-.016 0-3.228-3.034-8.807-8.321l-.166-.158v6.627ZM.385 7.64v6.548l2.884-.016c2.49-.014 2.934-.025 3.255-.082.944-.167 1.544-.417 2.144-.894 1.099-.874 1.505-2.742.887-4.085-.331-.718-.897-1.285-1.57-1.575-.115-.049-.209-.098-.21-.11 0-.01.085-.059.188-.108.617-.29 1.125-.947 1.344-1.737.122-.443.122-1.445 0-1.9-.369-1.366-1.44-2.204-3.181-2.488-.342-.055-.808-.068-3.072-.083l-2.67-.017V7.64Zm14.233-2.33c0 4.496.007 4.682.198 5.427.509 1.979 1.809 3.166 3.888 3.552.493.092 1.854.092 2.347 0 1.18-.219 2.055-.668 2.756-1.415.65-.692 1.058-1.593 1.24-2.738.064-.4.07-.797.07-4.727v-4.29l-1.103-.01-1.102-.01-.016 4.241c-.013 3.747-.022 4.278-.08 4.552-.235 1.138-.71 1.84-1.492 2.211-.466.222-.738.272-1.466.273-.557 0-.688-.012-.956-.089-.63-.18-1.117-.52-1.442-1.008-.259-.387-.363-.654-.543-1.398-.03-.127-.051-1.477-.067-4.472l-.023-4.29-1.104-.01-1.105-.01v4.21ZM44.962 7.64v6.541h2.19V1.1h-2.19V7.64Zm25.652 0v6.541H78.552v-1.98l-2.884-.01-2.884-.01V8.147l2.59-.01 2.59-.01V6.225l-2.59-.01-2.59-.01-.01-1.563-.01-1.562h5.787V1.1H70.614V7.64ZM5.957 3.132c.376.108.628.24.843.44.36.334.491.721.458 1.358-.026.489-.125.755-.389 1.041-.234.255-.617.456-1.049.552-.245.055-.537.066-1.78.068l-1.485.002-.01-1.779-.01-1.779 1.593.015c1.366.013 1.628.025 1.829.082Zm.391 5.43c.865.289 1.31.892 1.31 1.777 0 .52-.145.914-.463 1.254-.24.255-.465.395-.847.523l-.313.104-1.75.013-1.75.012V8.433l1.75.013 1.75.014.313.104Zm31.443 12.242c-1.495.23-2.583.926-3.093 1.977-.256.528-.311.788-.31 1.475 0 .63.055.959.225 1.376.322.792 1.01 1.453 1.997 1.92.198.095.782.322 1.296.506 1.572.563 1.783.645 2.182.847.464.235.763.506.916.832.094.2.106.271.106.633 0 .367-.01.431-.112.649-.354.762-1.44 1.15-2.87 1.024-1.305-.115-2.369-.53-3.572-1.396-.072-.052-.073-.025-.073 1.088v1.143l.306.184c.6.36 1.533.674 2.466.829.6.1 2.06.098 2.604-.003 1.775-.33 2.932-1.254 3.31-2.645.113-.42.123-1.319.02-1.805-.242-1.13-.962-1.952-2.225-2.541-.2-.093-.96-.382-1.691-.642-1.99-.708-2.378-.92-2.627-1.428-.097-.199-.109-.264-.11-.63 0-.373.009-.425.11-.615.235-.443.68-.73 1.348-.867.322-.067.473-.075 1.005-.057.352.012.753.05.918.085a6.428 6.428 0 0 1 2.21.954c.237.158.443.293.46.3.016.007.029-.485.029-1.094v-1.107l-.111-.078c-.164-.117-.769-.412-1.082-.529a8.435 8.435 0 0 0-1.606-.388c-.551-.071-1.553-.07-2.026.003Zm-20.084 6.48v6.502h2.151l.01-4.156.01-4.156 4.457 4.261 4.458 4.261.01-6.481c.006-3.565.002-6.503-.009-6.53-.014-.039-.25-.047-1.066-.04l-1.047.011-.02 4.081-.019 4.081-4.438-4.168c-2.44-2.293-4.451-4.168-4.467-4.168-.016 0-.03 2.925-.03 6.502Zm-8.524.077v6.425h2.229l-.01-6.415-.01-6.415-1.104-.01-1.105-.01v6.425Zm39.807 0v6.425h2.229l-.01-6.415-.01-6.415-1.105-.01-1.104-.01v6.425Zm8.68 0v6.425h2.775c3.007 0 3.277-.014 4.088-.218 2.364-.595 3.913-2.332 4.342-4.867.087-.515.118-1.632.06-2.177-.093-.887-.29-1.61-.632-2.323-.918-1.916-2.685-3.046-5.04-3.224-.291-.022-1.668-.04-3.06-.04H57.67v6.424Zm15.98-6.398c-.014.014-.026 2.905-.026 6.424v6.399h7.9V31.845h-5.71v-3.998h5.122v-1.864h-5.122v-3.105h5.709V20.937H77.6c-2.158 0-3.935.011-3.95.026Zm14.482 6.395v6.428h2.189v-5.202l.792.002.792.001 2.21 2.544c1.215 1.399 2.237 2.569 2.271 2.6.052.047.264.054 1.3.046l1.238-.01-2.321-2.62c-1.277-1.442-2.316-2.627-2.31-2.634.005-.007.158-.045.339-.084 1.755-.38 2.65-1.6 2.65-3.61-.002-1.853-.942-3.14-2.658-3.634-.751-.216-.823-.221-3.765-.238l-2.727-.016v6.427Zm5.617-4.39c.535.177.937.503 1.16.94.178.351.235 1.005.125 1.427a1.753 1.753 0 0 1-.967 1.168c-.492.233-.708.257-2.317.257h-1.429v-3.927l1.555.014 1.554.014.32.106Zm-30.115.002c.887.208 1.447.508 1.977 1.058.43.446.679.876.888 1.528.173.54.25 1.086.25 1.786.002.965-.139 1.692-.455 2.355-.213.448-.36.661-.683.998-.44.456-.901.738-1.528.934-.6.188-.933.216-2.649.216H59.86v-8.974l1.75.018c1.446.014 1.798.028 2.024.081Z" fill="#fff"/></svg>
